static/img/kroki/d476c22353d423e85dac44b994fb1edf.svg

<?xml version="1.0" encoding="us-ascii" standalone="no"?><svg xmlns="http://www.w3.org/2000/svg" xmlns:xlink="http://www.w3.org/1999/xlink" contentStyleType="text/css" height="374px" preserveAspectRatio="none" style="width:259px;height:374px;" version="1.1" viewBox="0 0 259 374" width="259px" zoomAndPan="magnify"><defs/><g><!--class kubernetes_deployment--><g id="elem_kubernetes_deployment"><rect codeLine="23" fill="#3D176E" height="39.7891" id="kubernetes_deployment" rx="2.5" ry="2.5" style="stroke:#000D19;stroke-width:0.5;" width="245" x="7" y="328.58"/><ellipse cx="22" cy="348.4745" fill="#ADD1B2" rx="11" ry="11" style="stroke:#181818;stroke-width:1.0;"/><path d="M24.9688,354.1152 Q24.3906,354.412 23.75,354.5527 Q23.1094,354.7089 22.4063,354.7089 Q19.9063,354.7089 18.5781,353.0683 Q17.2656,351.412 17.2656,348.287 Q17.2656,345.162 18.5781,343.5058 Q19.9063,341.8495 22.4063,341.8495 Q23.1094,341.8495 23.75,342.0058 Q24.4063,342.162 24.9688,342.4589 L24.9688,345.1777 Q24.3438,344.5995 23.75,344.3339 Q23.1563,344.0527 22.5313,344.0527 Q21.1875,344.0527 20.5,345.1308 Q19.8125,346.1933 19.8125,348.287 Q19.8125,350.3808 20.5,351.4589 Q21.1875,352.5214 22.5313,352.5214 Q23.1563,352.5214 23.75,352.2558 Q24.3438,351.9745 24.9688,351.3964 L24.9688,354.1152 Z " fill="#000000"/><text fill="#D9B8FF" font-family="Helvetica" font-size="17" lengthAdjust="spacing" textLength="203" x="41" y="354.3598">kubernetes_deployment</text></g><!--class kubernetes_resource--><g id="elem_kubernetes_resource"><rect codeLine="26" fill="#3D176E" height="39.7891" id="kubernetes_resource" rx="2.5" ry="2.5" style="stroke:#000D19;stroke-width:0.5;" width="216" x="21.5" y="167.79"/><ellipse cx="36.5" cy="187.6845" fill="#ADD1B2" rx="11" ry="11" style="stroke:#181818;stroke-width:1.0;"/><path d="M39.4688,193.3252 Q38.8906,193.622 38.25,193.7627 Q37.6094,193.9189 36.9063,193.9189 Q34.4063,193.9189 33.0781,192.2783 Q31.7656,190.622 31.7656,187.497 Q31.7656,184.372 33.0781,182.7158 Q34.4063,181.0595 36.9063,181.0595 Q37.6094,181.0595 38.25,181.2158 Q38.9063,181.372 39.4688,181.6689 L39.4688,184.3877 Q38.8438,183.8095 38.25,183.5439 Q37.6563,183.2627 37.0313,183.2627 Q35.6875,183.2627 35,184.3408 Q34.3125,185.4033 34.3125,187.497 Q34.3125,189.5908 35,190.6689 Q35.6875,191.7314 37.0313,191.7314 Q37.6563,191.7314 38.25,191.4658 Q38.8438,191.1845 39.4688,190.6064 L39.4688,193.3252 Z " fill="#000000"/><text fill="#D9B8FF" font-family="Helvetica" font-size="17" lengthAdjust="spacing" textLength="174" x="55.5" y="193.5698">kubernetes_resource</text></g><!--class resource--><g id="elem_resource"><rect codeLine="29" fill="#3D176E" height="39.7891" id="resource" rx="2.5" ry="2.5" style="stroke:#000D19;stroke-width:0.5;" width="113" x="73" y="7"/><ellipse cx="88" cy="26.8945" fill="#ADD1B2" rx="11" ry="11" style="stroke:#181818;stroke-width:1.0;"/><path d="M90.9688,32.5352 Q90.3906,32.832 89.75,32.9727 Q89.1094,33.1289 88.4063,33.1289 Q85.9063,33.1289 84.5781,31.4883 Q83.2656,29.832 83.2656,26.707 Q83.2656,23.582 84.5781,21.9258 Q85.9063,20.2695 88.4063,20.2695 Q89.1094,20.2695 89.75,20.4258 Q90.4063,20.582 90.9688,20.8789 L90.9688,23.5977 Q90.3438,23.0195 89.75,22.7539 Q89.1563,22.4727 88.5313,22.4727 Q87.1875,22.4727 86.5,23.5508 Q85.8125,24.6133 85.8125,26.707 Q85.8125,28.8008 86.5,29.8789 Q87.1875,30.9414 88.5313,30.9414 Q89.1563,30.9414 89.75,30.6758 Q90.3438,30.3945 90.9688,29.8164 L90.9688,32.5352 Z " fill="#000000"/><text fill="#D9B8FF" font-family="Helvetica" font-size="17" lengthAdjust="spacing" textLength="71" x="107" y="32.7798">resource</text></g><!--reverse link kubernetes_resource to kubernetes_deployment--><g id="link_kubernetes_resource_kubernetes_deployment"><path codeLine="32" d="M129.5,225.84 C129.5,256.36 129.5,297.69 129.5,328.25 " fill="none" id="kubernetes_resource-backto-kubernetes_deployment" style="stroke:#FFAF37;stroke-width:2.0;"/><polygon fill="none" points="129.5,207.84,123.5,225.84,135.5,225.84,129.5,207.84" style="stroke:#FFAF37;stroke-width:2.0;"/></g><!--reverse link resource to kubernetes_resource--><g id="link_resource_kubernetes_resource"><path codeLine="33" d="M129.5,65.05 C129.5,95.57 129.5,136.9 129.5,167.46 " fill="none" id="resource-backto-kubernetes_resource" style="stroke:#FFAF37;stroke-width:2.0;"/><polygon fill="none" points="129.5,47.05,123.5,65.05,135.5,65.05,129.5,47.05" style="stroke:#FFAF37;stroke-width:2.0;"/></g><!--SRC=[XP9BQyCm48Jl-XM2d0rsG-iOUaaCfRs4qlHUP6iL2rkIMSaDxkE_rswQelYHN6S-TcQNBIG72gfsBLMWCa1BR2brpP0fkaOqXzHK1kb222QMyT1yCDfT1RPC0Ns4wXsSpDcGU2raNcgmbjvureRbvHvDe_bnl4EcRMU1TXwLLipQjNCeiyQ1LuOdsKg88JaSkbZoABw34MQG0_uXOHZoA1aYLwCkxlrFxEG7qCW_sjOu6DKSHVnI5rlsX5TojEZ9d-tup3YNUazlFUtbs0aru9c-AnWtXvuMhB9-Z7M0O5nRGphQ2f8L5_4a_3G7axm_7IsRxbCrEB1l7EhAjAhx2_f9oFSOGB2cmHny-roRWk-_WY2OpY7pqCaXFm00]--></g></svg>

<svg xmlns="http://www.w3.org/2000/svg" width="259" height="374" viewBox="0 0 259 374"><rect width="245" height="39.789" x="7" y="328.58" fill="#3D176E" rx="2.5" ry="2.5" style="stroke:#000d19;stroke-width:.5"/><circle cx="22" cy="348.474" r="11" fill="#ADD1B2" style="stroke:#181818;stroke-width:1"/><path d="M24.969 354.115q-.578.297-1.219.438-.64.156-1.344.156-2.5 0-3.828-1.64-1.312-1.657-1.312-4.782t1.312-4.781q1.328-1.656 3.828-1.656.703 0 1.344.156.656.156 1.219.453v2.719q-.625-.579-1.219-.844-.594-.281-1.219-.281-1.343 0-2.031 1.078-.687 1.062-.687 3.156t.687 3.172q.688 1.062 2.031 1.062.625 0 1.219-.265.594-.281 1.219-.86z"/><text x="41" y="354.36" fill="#D9B8FF" font-family="Helvetica" font-size="17" textLength="203">kubernetes_deployment</text><rect width="216" height="39.789" x="21.5" y="167.79" fill="#3D176E" rx="2.5" ry="2.5" style="stroke:#000d19;stroke-width:.5"/><circle cx="36.5" cy="187.685" r="11" fill="#ADD1B2" style="stroke:#181818;stroke-width:1"/><path d="M39.469 193.325q-.578.297-1.219.438-.64.156-1.344.156-2.5 0-3.828-1.64-1.312-1.657-1.312-4.782t1.312-4.781q1.328-1.656 3.828-1.656.703 0 1.344.156.656.156 1.219.453v2.719q-.625-.578-1.219-.844-.594-.281-1.219-.281-1.343 0-2.031 1.078-.687 1.062-.687 3.156t.687 3.172q.688 1.062 2.031 1.062.625 0 1.219-.265.594-.281 1.219-.86z"/><text x="55.5" y="193.57" fill="#D9B8FF" font-family="Helvetica" font-size="17" textLength="174">kubernetes_resource</text><rect width="113" height="39.789" x="73" y="7" fill="#3D176E" rx="2.5" ry="2.5" style="stroke:#000d19;stroke-width:.5"/><circle cx="88" cy="26.895" r="11" fill="#ADD1B2" style="stroke:#181818;stroke-width:1"/><path d="M90.969 32.535q-.578.297-1.219.438-.64.156-1.344.156-2.5 0-3.828-1.64-1.312-1.657-1.312-4.782t1.312-4.781q1.328-1.656 3.828-1.656.703 0 1.344.156.656.156 1.219.453v2.719q-.625-.578-1.219-.844-.594-.281-1.219-.281-1.344 0-2.031 1.078-.687 1.062-.687 3.156t.687 3.172q.688 1.062 2.031 1.062.625 0 1.219-.265.594-.281 1.219-.86z"/><text x="107" y="32.78" fill="#D9B8FF" font-family="Helvetica" font-size="17" textLength="71">resource</text><path fill="none" d="M129.5 225.84v102.41m0-120.41-6 18h12zm0-142.79v102.41m0-120.41-6 18h12z" style="stroke:#ffaf37;stroke-width:2"/></svg>
